X: 7679
T:Polska fr N\aa{}s
R:Polska
O:Sweden
M:3/4
A:Dalarna
K:D
A a2b/a/ ~g>e | fe fa ~g>e | \
d>c (3def g>f | d2 f/g/f/e/ d>c | \
A a2 b/a/ ~g>e | fe fa ~g>e |
d>c (3def g>f | (3dec ~d4 :: \
(3c2A2B2 G>A | FG EF (D2 | D)>c (3def g>f |
d>e (3fed c>A | (3c2A2B2 G>A |\
FG ED (D2 | D)>c (3def g>f | (3dec ~d4 :|
